app/client/src/assets/icons/blueprintjs/20px/bring-data.svg

<?xml version="1.0" encoding="UTF-8"?>
<svg viewBox="0 0 20 20" version="1.1" xmlns="http://www.w3.org/2000/svg" xmlns:xlink="http://www.w3.org/1999/xlink">
    <g stroke="none" stroke-width="1" fill="none" fill-rule="evenodd">
        <path d="M18,18 C18.5522847,18 19,18.4477153 19,19 C19,19.5522847 18.5522847,20 18,20 L2,20 C1.44771525,20 1,19.5522847 1,19 C1,18.4477153 1.44771525,18 2,18 L18,18 Z M9.995,3.005 C10.545,3.005 10.995,3.45455045 10.995,4.004001 L10.995,4.004001 L10.995,13.5884166 L12.285,12.2997053 C12.465,12.1198851 12.715,12.009995 12.995,12.009995 C13.545,12.009995 13.995,12.4595455 13.995,13.008996 C13.995,13.2887163 13.885,13.5384665 13.705,13.7182867 L13.705,13.7182867 L10.705,16.7152897 C10.525,16.8951099 10.265,17.005 9.995,17.005 C9.725,17.005 9.475,16.8951099 9.285,16.7152897 L9.285,16.7152897 L6.285,13.7182867 C6.105,13.5384665 5.995,13.2887163 5.995,13.008996 C5.995,12.4595455 6.445,12.009995 6.995,12.009995 C7.275,12.009995 7.525,12.1198851 7.705,12.2997053 L7.705,12.2997053 L8.995,13.5884166 L8.995,4.01399101 C8.995,3.46454046 9.445,3.005 9.995,3.005 Z M16,0 C16.5522847,-1.01453063e-16 17,0.44771525 17,1 C17,1.55228475 16.5522847,2 16,2 C15.4477153,2 15,1.55228475 15,1 C15,0.44771525 15.4477153,1.01453063e-16 16,0 Z M13,0 C13.5522847,-1.01453063e-16 14,0.44771525 14,1 C14,1.55228475 13.5522847,2 13,2 C12.4477153,2 12,1.55228475 12,1 C12,0.44771525 12.4477153,1.01453063e-16 13,0 Z M10,0 C10.5522847,-1.01453063e-16 11,0.44771525 11,1 C11,1.55228475 10.5522847,2 10,2 C9.44771525,2 9,1.55228475 9,1 C9,0.44771525 9.44771525,1.01453063e-16 10,0 Z M7,0 C7.55228475,-1.01453063e-16 8,0.44771525 8,1 C8,1.55228475 7.55228475,2 7,2 C6.44771525,2 6,1.55228475 6,1 C6,0.44771525 6.44771525,1.01453063e-16 7,0 Z M4,0 C4.55228475,-1.01453063e-16 5,0.44771525 5,1 C5,1.55228475 4.55228475,2 4,2 C3.44771525,2 3,1.55228475 3,1 C3,0.44771525 3.44771525,1.01453063e-16 4,0 Z" fill="#000000" fill-rule="nonzero"></path>
    </g>
</svg>

<svg xmlns="http://www.w3.org/2000/svg" viewBox="0 0 20 20"><path fill-rule="nonzero" d="M18 18a1 1 0 0 1 0 2H2a1 1 0 0 1 0-2h16ZM9.995 3.005c.55 0 1 .45 1 .999v9.584l1.29-1.288a1.002 1.002 0 0 1 1.42 1.419l-3 2.996a1.015 1.015 0 0 1-1.42 0l-3-2.997a1.002 1.002 0 0 1 1.42-1.419l1.29 1.29V4.013c0-.55.45-1.009 1-1.009ZM16 0a1 1 0 1 1 0 2 1 1 0 0 1 0-2Zm-3 0a1 1 0 1 1 0 2 1 1 0 0 1 0-2Zm-3 0a1 1 0 1 1 0 2 1 1 0 0 1 0-2ZM7 0a1 1 0 1 1 0 2 1 1 0 0 1 0-2ZM4 0a1 1 0 1 1 0 2 1 1 0 0 1 0-2Z"/></svg>
